learn-bizapps-pr/achievements/modern-analytics.svg

<svg width="181" height="191" viewBox="0 0 181 191" fill="none" xmlns="http://www.w3.org/2000/svg">
<path d="M90.3912 189.819C93.4512 189.819 96.4612 188.969 99.1212 187.349L161.091 149.689C166.631 146.319 170.061 139.989 170.061 133.149V58.4389C170.061 51.6189 166.631 45.2789 161.091 41.8989L99.1212 4.23891C93.7912 0.998912 86.9712 1.01891 81.6712 4.23891L19.7012 41.9189C14.1612 45.2889 10.7112 51.6189 10.7112 58.4589V133.159C10.7112 138.919 13.1612 144.339 17.2612 147.909V147.939L81.6712 187.369C84.3112 188.969 87.3312 189.819 90.3912 189.819ZM91.0412 8.76891C92.9912 8.76891 95.4712 9.97891 97.1812 11.0289L157.941 48.2189C161.691 50.4989 163.811 57.0989 163.811 61.8489L163.181 133.149C163.181 137.899 159.981 142.169 156.231 144.449L95.8312 180.829C92.4012 182.919 89.6112 182.919 86.1712 180.829L24.9612 144.359C21.2112 142.079 18.1912 137.879 18.1912 133.149V59.5089C18.1912 54.7689 20.9212 49.8789 24.6912 47.5889L85.2712 11.0289C86.9712 9.98891 89.0912 8.76891 91.0412 8.76891Z" fill="#F2F1F0"/>
<path fill-rule="evenodd" clip-rule="evenodd" d="M98.2912 12.3477C95.8412 10.8477 93.1212 10.0977 90.3912 10.0977C87.6612 10.0977 84.9412 10.8577 82.4912 12.3477L26.3612 46.6777C21.3412 49.7477 18.2312 55.4977 18.2312 61.7477V129.848C18.2312 136.078 21.3312 141.848 26.3612 144.918L82.4912 179.248C84.9412 180.748 87.6612 181.498 90.3912 181.498C93.1212 181.498 95.8412 180.758 98.2912 179.248L154.421 144.918C159.441 141.848 162.551 136.078 162.551 129.848V61.7477C162.551 55.5177 159.451 49.7677 154.421 46.6777L98.2912 12.3477Z" fill="url(#paint0_linear_1284:3213)"/>
<path fill-rule="evenodd" clip-rule="evenodd" d="M90.3912 11.5684C92.0712 11.5684 93.9612 12.4384 96.0212 13.6884L154.491 49.2284C158.141 51.4484 160.551 55.7184 160.551 60.5484V131.028C160.551 135.848 158.141 140.128 154.491 142.348L96.0312 177.888C94.0712 179.078 92.1512 179.828 90.4012 179.828C88.6512 179.828 86.7312 179.078 84.7712 177.888L26.2912 142.358C24.2812 141.128 22.8312 139.928 21.8512 138.318C20.8712 136.718 20.2312 134.498 20.2312 131.038V60.5584C20.2312 55.7284 22.6412 51.4584 26.2912 49.2384L84.7512 13.6984C86.8412 12.4484 88.7012 11.5684 90.3912 11.5684ZM98.1012 181.318L156.561 145.778C161.481 142.788 164.541 137.168 164.541 131.038V60.5584C164.541 54.4284 161.481 48.8084 156.561 45.8184L98.1012 10.2784C95.9912 8.99836 93.2812 7.56836 90.3912 7.56836C87.4912 7.56836 84.7812 9.00836 82.6912 10.2684H82.6812L24.2112 45.8184C19.2912 48.8084 16.2312 54.4284 16.2312 60.5584V131.038C16.2312 134.998 16.9712 137.988 18.4312 140.398C19.8912 142.798 21.9512 144.398 24.2112 145.768L82.6712 181.308C84.8912 182.658 87.5612 183.838 90.3812 183.838C93.2012 183.838 95.8812 182.668 98.1012 181.318Z" fill="url(#paint1_linear_1284:3213)"/>
<path fill-rule="evenodd" clip-rule="evenodd" d="M75.3584 126.979C75.3584 127.255 75.1345 127.479 74.8584 127.479L61.0152 127.479L61.0152 126.479L74.3584 126.479L74.3584 68.031L61.0389 68.031L61.0389 67.031L74.8584 67.031C75.1345 67.031 75.3584 67.2549 75.3584 67.531L75.3584 126.979Z" fill="white"/>
<path fill-rule="evenodd" clip-rule="evenodd" d="M95.0068 99.6445L74.645 99.6445L74.645 98.6445L95.0068 98.6445L95.0068 99.6445Z" fill="white"/>
<path opacity="0.2" d="M67.9818 96.1294C69.1299 96.1294 70.0655 95.1939 70.0655 94.0457V56.1426H29.0864V94.0315C29.0864 95.1797 30.022 96.1152 31.1701 96.1152L67.9818 96.1294Z" fill="#1F1D21"/>
<path d="M70.0655 55.4909V54.853C70.0655 54.0592 69.4276 53.4355 68.648 53.4355H30.5039C29.7243 53.4355 29.0864 54.0734 29.0864 54.853V55.5618V56.1996V92.6994C29.0864 93.4932 29.7243 94.1169 30.5039 94.1169H68.6338C69.4276 94.1169 70.0513 93.4791 70.0513 92.6994V55.5618C70.0796 55.5334 70.0655 55.5192 70.0655 55.4909Z" fill="white"/>
<path opacity="0.2" d="M67.9818 142.825C69.1299 142.825 70.0655 141.889 70.0655 140.741V102.838H29.0864V140.727C29.0864 141.875 30.022 142.811 31.1701 142.811L67.9818 142.825Z" fill="#1F1D21"/>
<path d="M70.0655 102.186V101.548C70.0655 100.755 69.4276 100.131 68.648 100.131H30.5039C29.7243 100.131 29.0864 100.769 29.0864 101.548V102.257V102.895V139.395C29.0864 140.189 29.7243 140.812 30.5039 140.812H68.6338C69.4276 140.812 70.0513 140.174 70.0513 139.395V102.257C70.0796 102.229 70.0655 102.215 70.0655 102.186Z" fill="white"/>
<path d="M58.8712 136.332H49.2317V107.496C49.2317 106.458 50.0746 105.615 51.112 105.615H58.8712C59.9086 105.615 60.7516 106.458 60.7516 107.496V134.452C60.7516 135.489 59.9086 136.332 58.8712 136.332Z" fill="url(#paint2_linear_1284:3213)"/>
<path d="M52.6294 136.333H42.7478V115.095C42.7478 114.192 43.4827 113.457 44.3861 113.457H52.6251C53.5285 113.457 54.2634 114.192 54.2634 115.095V134.69C54.2677 135.598 53.5328 136.333 52.6294 136.333Z" fill="url(#paint3_linear_1284:3213)"/>
<path d="M45.9467 136.332H38.6976C37.5176 136.332 36.5623 135.377 36.5623 134.197V123.118C36.5623 121.938 37.5176 120.982 38.6976 120.982H45.9511C47.1311 120.982 48.0865 121.938 48.0865 123.118V134.197C48.0821 135.377 47.1268 136.332 45.9467 136.332Z" fill="url(#paint4_linear_1284:3213)"/>
<path fill-rule="evenodd" clip-rule="evenodd" d="M42.4257 58.8164H63.1479C64.0087 58.8164 64.713 59.5207 64.713 60.3815V87.0668C64.713 87.9276 64.0087 88.6319 63.1479 88.6319H42.4257C41.5649 88.6319 40.8606 87.9276 40.8606 87.0668V60.3815C40.8606 59.5207 41.5492 58.8164 42.4257 58.8164Z" fill="#195C37"/>
<path d="M64.7131 73.7168H52.7869V81.1668H64.7131V73.7168Z" fill="#107B42"/>
<path d="M64.7131 66.2656H52.7869V73.7156H64.7131V66.2656Z" fill="#22A366"/>
<path d="M52.7868 66.2656H40.1094V73.7156H52.7868V66.2656Z" fill="#117740"/>
<path fill-rule="evenodd" clip-rule="evenodd" d="M52.7869 58.8164H63.1479C64.0088 58.8164 64.7131 59.5207 64.7131 60.3815V66.2664H52.7869V58.8164Z" fill="#34C481"/>
<path fill-rule="evenodd" clip-rule="evenodd" d="M52.7868 58.8164H41.6745C40.8137 58.8164 40.1094 59.5207 40.1094 60.3815V66.2664H52.7868V58.8164Z" fill="#21A465"/>
<path fill-rule="evenodd" clip-rule="evenodd" d="M34.967 66.2695H48.2392C49.1 66.2695 49.8043 66.9738 49.8043 67.8346V80.3556C49.8043 81.2164 49.1 81.9207 48.2392 81.9207H34.967C34.1062 81.9207 33.4019 81.2164 33.4019 80.3556V67.8346C33.4019 66.9738 34.1062 66.2695 34.967 66.2695Z" fill="#137F47"/>
<path fill-rule="evenodd" clip-rule="evenodd" d="M40.1322 74.5017L37.4245 69.9941H39.5531L41.3999 73.4061L43.2468 69.9941H45.2188L42.4799 74.4391L45.3284 78.9466H43.1059L41.2747 75.2842L39.4122 78.9466H37.1428L40.1322 74.5017Z" fill="white"/>
<path opacity="0.15" d="M83.9714 130.091H152.485C154.404 130.091 155.964 128.532 155.964 126.612V71.9766H80.4929V126.612C80.4929 128.532 82.0522 130.091 83.9714 130.091Z" fill="#1F1D20"/>
<path d="M81.9323 126.913H154.524C155.316 126.913 155.964 126.265 155.964 125.474V68.7988H80.4929V125.474C80.4929 126.265 81.1406 126.913 81.9323 126.913Z" fill="white"/>
<path d="M80.4929 75.0717H155.964V68.3066C155.964 67.6949 155.472 67.2031 154.86 67.2031H81.5964C80.9847 67.2031 80.4929 67.6949 80.4929 68.3066V75.0717Z" fill="#092E4C"/>
<path d="M86.2983 73.213C87.3538 73.213 88.2175 72.3614 88.2175 71.2939C88.2175 70.2263 87.3418 69.3867 86.2983 69.3867C85.2428 69.3867 84.3792 70.2383 84.3792 71.3059C84.3792 72.3734 85.2188 73.213 86.2983 73.213Z" fill="#32B0E7"/>
<path d="M150.049 88.687C150.049 87.9468 149.449 87.3477 148.709 87.3477H145.96C145.22 87.3477 144.621 87.9468 144.621 88.687C144.621 89.4272 145.22 90.0264 145.96 90.0264H148.709C149.456 90.0264 150.049 89.4272 150.049 88.687Z" fill="white"/>
<path d="M150.049 94.1148C150.049 93.3746 149.449 92.7754 148.709 92.7754H143.295C142.555 92.7754 141.956 93.3746 141.956 94.1148C141.956 94.8549 142.555 95.4541 143.295 95.4541H148.709C149.456 95.4541 150.049 94.8549 150.049 94.1148Z" fill="white"/>
<path d="M150.049 104.878C150.049 104.138 149.449 103.539 148.709 103.539H131.086C130.346 103.539 129.747 104.138 129.747 104.878C129.747 105.619 130.346 106.218 131.086 106.218H148.702C149.456 106.218 150.049 105.619 150.049 104.878Z" fill="white"/>
<path d="M150.049 99.4507C150.049 98.7105 149.449 98.1113 148.709 98.1113H137.86C137.12 98.1113 136.521 98.7105 136.521 99.4507C136.521 100.191 137.12 100.79 137.86 100.79H148.723C149.456 100.79 150.049 100.184 150.049 99.4507Z" fill="white"/>
<path d="M150.049 110.321C150.049 109.566 149.449 108.967 148.709 108.967H125.729C124.988 108.953 124.389 109.552 124.389 110.292V110.306C124.389 111.047 124.988 111.646 125.729 111.646H148.709C149.456 111.66 150.049 111.061 150.049 110.321Z" fill="white"/>
<path d="M124.382 110.322C124.382 111.062 124.981 111.661 125.721 111.661H128.471C129.211 111.661 129.81 111.062 129.81 110.322C129.81 109.582 129.211 108.982 128.471 108.982H125.721C124.988 108.982 124.382 109.582 124.382 110.322Z" fill="#185A97"/>
<path d="M124.382 104.894C124.382 105.634 124.981 106.233 125.721 106.233H131.142C131.883 106.233 132.482 105.634 132.482 104.894C132.482 104.154 131.883 103.555 131.142 103.555H125.728C124.988 103.555 124.382 104.154 124.382 104.894Z" fill="#0078D1"/>
<path d="M124.382 94.1148C124.382 94.8549 124.981 95.4541 125.721 95.4541H143.338C144.078 95.4541 144.677 94.8549 144.677 94.1148C144.677 93.3746 144.078 92.7754 143.338 92.7754H125.728C124.988 92.7754 124.382 93.3746 124.382 94.1148Z" fill="#45CAF2"/>
<path d="M124.382 99.5425C124.382 100.283 124.981 100.882 125.721 100.882H136.584C137.325 100.882 137.924 100.283 137.924 99.5425C137.924 98.8023 137.325 98.2031 136.584 98.2031H125.728C124.988 98.2031 124.382 98.8164 124.382 99.5425Z" fill="#32B0E7"/>
<path d="M124.382 88.6871C124.382 89.4414 124.981 90.0405 125.721 90.0405H148.702C149.442 90.0546 150.041 89.4555 150.041 88.7153V88.6871C150.041 87.9469 149.442 87.3477 148.702 87.3477H125.721C124.988 87.3407 124.382 87.9469 124.382 88.6871Z" fill="#50E6FF"/>
<path opacity="0.2" d="M119.363 118.956C120.138 118.956 120.766 118.329 120.766 117.554V84.3867H85.3218V117.554C85.3218 118.329 85.9492 118.956 86.7246 118.956H119.363Z" fill="#1F1D21"/>
<path d="M120.766 84.3733V83.8235C120.766 83.1397 120.216 82.5898 119.532 82.5898H86.5554C85.8716 82.5898 85.3218 83.1397 85.3218 83.8235V84.4297V84.9866V116.546C85.3218 117.23 85.8716 117.78 86.5554 117.78H119.546C120.23 117.78 120.78 117.23 120.78 116.546V84.4297C120.773 84.4086 120.766 84.3945 120.766 84.3733Z" fill="white"/>
<path d="M95.557 109.305H91.9407V114.028H95.5499V109.305H95.557Z" fill="#45CAF2"/>
<path d="M100.95 106.168H97.2839V114.028H100.964V106.168H100.95Z" fill="#50E6FF"/>
<path d="M107.484 101.072H102.761V114.008H107.484V101.072Z" fill="#32B0E7"/>
<path d="M114.886 95.7852H109.458V114.008H114.886V95.7852Z" fill="#185A97"/>
<path d="M94.0696 104.865L93.4141 104.555L98.3838 95.5458L105.01 96.2014L111.883 90.7734L112.419 91.2598L105.257 97.005L98.7856 96.3917L94.0696 104.865Z" fill="#16B2E6"/>
<path d="M93.0052 106.423C93.8723 106.655 94.7676 106.141 95.0002 105.274C95.2328 104.406 94.7182 103.511 93.8511 103.279C92.9841 103.046 92.0888 103.561 91.8562 104.428C91.6236 105.302 92.1382 106.19 93.0052 106.423Z" fill="#005599"/>
<path d="M98.264 97.7448C99.1311 97.9774 100.026 97.4628 100.259 96.5958C100.492 95.7287 99.977 94.8335 99.1099 94.6008C98.2429 94.3682 97.3476 94.8828 97.115 95.7499C96.8824 96.6169 97.397 97.5122 98.264 97.7448Z" fill="#005599"/>
<path d="M104.559 98.1257C105.426 98.3583 106.321 97.8437 106.554 96.9766C106.787 96.1096 106.272 95.2143 105.405 94.9817C104.538 94.7491 103.643 95.2637 103.41 96.1307C103.177 96.9978 103.692 97.886 104.559 98.1257Z" fill="#005599"/>
<path d="M111.199 92.521C112.292 93.1202 113.596 92.3659 113.631 91.1182C113.646 90.5331 113.314 89.9621 112.807 89.6801C111.714 89.0809 110.41 89.8352 110.375 91.0829C110.361 91.668 110.685 92.239 111.199 92.521Z" fill="#005599"/>
<defs>
<linearGradient id="paint0_linear_1284:3213" x1="90.3911" y1="10.0977" x2="90.3911" y2="181.497" gradientUnits="userSpaceOnUse">
<stop stop-color="#00ABDE"/>
<stop offset="1" stop-color="#007ED8"/>
</linearGradient>
<linearGradient id="paint1_linear_1284:3213" x1="36.5109" y1="4.88946" x2="203.188" y2="287.22" gradientUnits="userSpaceOnUse">
<stop stop-color="#007ED8"/>
<stop offset="0.7065" stop-color="#002D4C"/>
</linearGradient>
<linearGradient id="paint2_linear_1284:3213" x1="54.8632" y1="108.425" x2="55.1083" y2="133.911" gradientUnits="userSpaceOnUse">
<stop offset="0.00753769" stop-color="#E0A310"/>
<stop offset="1" stop-color="#CA810E"/>
</linearGradient>
<linearGradient id="paint3_linear_1284:3213" x1="48.1993" y1="114.348" x2="48.9345" y2="141.305" gradientUnits="userSpaceOnUse">
<stop offset="0.00753769" stop-color="#F2CC40"/>
<stop offset="1" stop-color="#E7B116"/>
</linearGradient>
<linearGradient id="paint4_linear_1284:3213" x1="42.0469" y1="122.164" x2="42.7821" y2="139.564" gradientUnits="userSpaceOnUse">
<stop stop-color="#F8E17B"/>
<stop offset="0.5302" stop-color="#F6D856"/>
<stop offset="1" stop-color="#F6D856"/>
</linearGradient>
</defs>
</svg>

<svg width="181" height="191" fill="none" xmlns="http://www.w3.org/2000/svg"><path d="M90.391 189.819c3.06 0 6.07-.85 8.73-2.47l61.97-37.66c5.54-3.37 8.97-9.7 8.97-16.54v-74.71c0-6.82-3.43-13.16-8.97-16.54l-61.97-37.66c-5.33-3.24-12.15-3.22-17.45 0l-61.97 37.68c-5.54 3.37-8.99 9.7-8.99 16.54v74.7c0 5.76 2.45 11.18 6.55 14.75v.03l64.41 39.43c2.64 1.6 5.66 2.45 8.72 2.45Zm.65-181.05c1.95 0 4.43 1.21 6.14 2.26l60.76 37.19c3.75 2.28 5.87 8.88 5.87 13.63l-.63 71.3c0 4.75-3.2 9.02-6.95 11.3l-60.4 36.38c-3.43 2.09-6.22 2.09-9.66 0l-61.21-36.47c-3.75-2.28-6.77-6.48-6.77-11.21v-73.64c0-4.74 2.73-9.63 6.5-11.92l60.58-36.56c1.7-1.04 3.82-2.26 5.77-2.26Z" fill="#F2F1F0"/><path fill-rule="evenodd" clip-rule="evenodd" d="M98.291 12.348c-2.45-1.5-5.17-2.25-7.9-2.25-2.73 0-5.45.76-7.9 2.25l-56.13 34.33c-5.02 3.07-8.13 8.82-8.13 15.07v68.1c0 6.23 3.1 12 8.13 15.07l56.13 34.33c2.45 1.5 5.17 2.25 7.9 2.25 2.73 0 5.45-.74 7.9-2.25l56.13-34.33c5.02-3.07 8.13-8.84 8.13-15.07v-68.1c0-6.23-3.1-11.98-8.13-15.07l-56.13-34.33Z" fill="url(#a)"/><path fill-rule="evenodd" clip-rule="evenodd" d="M90.391 11.568c1.68 0 3.57.87 5.63 2.12l58.47 35.54c3.65 2.22 6.06 6.49 6.06 11.32v70.48c0 4.82-2.41 9.1-6.06 11.32l-58.46 35.54c-1.96 1.19-3.88 1.94-5.63 1.94s-3.67-.75-5.63-1.94l-58.48-35.53c-2.01-1.23-3.46-2.43-4.44-4.04-.98-1.6-1.62-3.82-1.62-7.28v-70.48c0-4.83 2.41-9.1 6.06-11.32l58.46-35.54c2.09-1.25 3.95-2.13 5.64-2.13Zm7.71 169.75 58.46-35.54c4.92-2.99 7.98-8.61 7.98-14.74v-70.48c0-6.13-3.06-11.75-7.98-14.74l-58.46-35.54c-2.11-1.28-4.82-2.71-7.71-2.71-2.9 0-5.61 1.44-7.7 2.7h-.01l-58.47 35.55c-4.92 2.99-7.98 8.61-7.98 14.74v70.48c0 3.96.74 6.95 2.2 9.36 1.46 2.4 3.52 4 5.78 5.37l58.46 35.54c2.22 1.35 4.89 2.53 7.71 2.53 2.82 0 5.5-1.17 7.72-2.52Z" fill="url(#b)"/><path fill-rule="evenodd" clip-rule="evenodd" d="M75.358 126.979a.5.5 0 0 1-.5.5H61.015v-1h13.343V68.031h-13.32v-1h13.82a.5.5 0 0 1 .5.5v59.448Z" fill="#fff"/><path fill-rule="evenodd" clip-rule="evenodd" d="M95.007 99.644H74.645v-1h20.362v1Z" fill="#fff"/><path opacity=".2" d="M67.982 96.13a2.087 2.087 0 0 0 2.084-2.084V56.143h-40.98V94.03c0 1.149.936 2.084 2.084 2.084l36.812.014Z" fill="#1F1D21"/><path d="M70.066 55.49v-.637c0-.794-.638-1.418-1.418-1.418H30.504c-.78 0-1.418.638-1.418 1.418V92.7c0 .793.638 1.417 1.418 1.417h38.13c.794 0 1.417-.638 1.417-1.418V55.562c.029-.029.014-.043.014-.071Z" fill="#fff"/><path opacity=".2" d="M67.982 142.825a2.087 2.087 0 0 0 2.084-2.084v-37.903h-40.98v37.889c0 1.148.936 2.084 2.084 2.084l36.812.014Z" fill="#1F1D21"/><path d="M70.066 102.186v-.638c0-.793-.638-1.417-1.418-1.417H30.504c-.78 0-1.418.638-1.418 1.417v37.847c0 .794.638 1.417 1.418 1.417h38.13c.794 0 1.417-.638 1.417-1.417v-37.138c.029-.028.014-.042.014-.071Z" fill="#fff"/><path d="M58.871 136.332h-9.64v-28.836c0-1.038.844-1.881 1.881-1.881h7.76c1.037 0 1.88.843 1.88 1.881v26.956c0 1.037-.843 1.88-1.88 1.88Z" fill="url(#c)"/><path d="M52.63 136.333h-9.882v-21.238a1.64 1.64 0 0 1 1.638-1.638h8.24a1.64 1.64 0 0 1 1.637 1.638v19.595a1.635 1.635 0 0 1-1.634 1.643Z" fill="url(#d)"/><path d="M45.947 136.332h-7.25a2.134 2.134 0 0 1-2.135-2.135v-11.079c0-1.18.956-2.136 2.136-2.136h7.253c1.18 0 2.136.956 2.136 2.136v11.079a2.14 2.14 0 0 1-2.14 2.135Z" fill="url(#e)"/><path fill-rule="evenodd" clip-rule="evenodd" d="M42.426 58.816h20.722c.86 0 1.565.705 1.565 1.566v26.685a1.57 1.57 0 0 1-1.565 1.565H42.426a1.57 1.57 0 0 1-1.565-1.565V60.382c0-.861.688-1.566 1.565-1.566Z" fill="#195C37"/><path d="M64.713 73.717H52.787v7.45h11.926v-7.45Z" fill="#107B42"/><path d="M64.713 66.266H52.787v7.45h11.926v-7.45Z" fill="#22A366"/><path d="M52.787 66.266H40.109v7.45h12.678v-7.45Z" fill="#117740"/><path fill-rule="evenodd" clip-rule="evenodd" d="M52.787 58.816h10.36c.862 0 1.566.705 1.566 1.566v5.884H52.787v-7.45Z" fill="#34C481"/><path fill-rule="evenodd" clip-rule="evenodd" d="M52.787 58.816H41.675a1.57 1.57 0 0 0-1.566 1.566v5.884h12.678v-7.45Z" fill="#21A465"/><path fill-rule="evenodd" clip-rule="evenodd" d="M34.967 66.27h13.272c.861 0 1.565.704 1.565 1.565v12.52a1.57 1.57 0 0 1-1.565 1.566H34.967a1.57 1.57 0 0 1-1.565-1.565V67.835c0-.861.704-1.566 1.565-1.566Z" fill="#137F47"/><path fill-rule="evenodd" clip-rule="evenodd" d="m40.132 74.502-2.707-4.508h2.128l1.847 3.412 1.847-3.412h1.972l-2.74 4.445 2.85 4.508h-2.223l-1.831-3.663-1.863 3.663h-2.27l2.99-4.445Z" fill="#fff"/><path opacity=".15" d="M83.971 130.091h68.514a3.481 3.481 0 0 0 3.479-3.479V71.977H80.493v54.635a3.48 3.48 0 0 0 3.478 3.479Z" fill="#1F1D20"/><path d="M81.932 126.913h72.592c.792 0 1.44-.648 1.44-1.439V68.799H80.493v56.675c0 .791.648 1.439 1.44 1.439Z" fill="#fff"/><path d="M80.493 75.072h75.471v-6.765a1.1 1.1 0 0 0-1.104-1.104H81.596a1.1 1.1 0 0 0-1.103 1.104v6.765Z" fill="#092E4C"/><path d="M86.298 73.213c1.056 0 1.92-.852 1.92-1.92a1.915 1.915 0 0 0-1.92-1.906c-1.055 0-1.919.851-1.919 1.919 0 1.067.84 1.907 1.92 1.907Z" fill="#32B0E7"/><path d="M150.049 88.687c0-.74-.6-1.34-1.34-1.34h-2.749a1.339 1.339 0 1 0 0 2.68h2.749c.747 0 1.34-.6 1.34-1.34ZM150.049 94.115c0-.74-.6-1.34-1.34-1.34h-5.414a1.339 1.339 0 1 0 0 2.68h5.414c.747 0 1.34-.6 1.34-1.34ZM150.049 104.878c0-.74-.6-1.339-1.34-1.339h-17.623a1.338 1.338 0 1 0 0 2.679h17.616c.754 0 1.347-.599 1.347-1.34ZM150.049 99.45c0-.74-.6-1.339-1.34-1.339H137.86a1.339 1.339 0 1 0 0 2.679h10.863c.733 0 1.326-.606 1.326-1.34ZM150.049 110.321c0-.755-.6-1.354-1.34-1.354h-22.98a1.318 1.318 0 0 0-1.34 1.325v.014c0 .741.599 1.34 1.34 1.34h22.98a1.314 1.314 0 0 0 1.34-1.325Z" fill="#fff"/><path d="M124.382 110.322c0 .74.599 1.339 1.339 1.339h2.75a1.338 1.338 0 1 0 0-2.679h-2.75c-.733 0-1.339.6-1.339 1.34Z" fill="#185A97"/><path d="M124.382 104.894c0 .74.599 1.339 1.339 1.339h5.421a1.339 1.339 0 1 0 0-2.678h-5.414c-.74 0-1.346.599-1.346 1.339Z" fill="#0078D1"/><path d="M124.382 94.115c0 .74.599 1.34 1.339 1.34h17.617a1.339 1.339 0 1 0 0-2.68h-17.61c-.74 0-1.346.6-1.346 1.34Z" fill="#45CAF2"/><path d="M124.382 99.543c0 .74.599 1.339 1.339 1.339h10.863a1.339 1.339 0 1 0 0-2.679h-10.856c-.74 0-1.346.613-1.346 1.34Z" fill="#32B0E7"/><path d="M124.382 88.687c0 .754.599 1.353 1.339 1.353h22.981a1.318 1.318 0 0 0 1.339-1.325v-.028c0-.74-.599-1.34-1.339-1.34h-22.981a1.339 1.339 0 0 0-1.339 1.34Z" fill="#50E6FF"/><path opacity=".2" d="M119.363 118.956c.775 0 1.403-.627 1.403-1.402V84.387H85.322v33.167c0 .775.627 1.402 1.403 1.402h32.638Z" fill="#1F1D21"/><path d="M120.766 84.373v-.55a1.23 1.23 0 0 0-1.234-1.233H86.555a1.23 1.23 0 0 0-1.233 1.233v32.723c0 .684.55 1.234 1.233 1.234h32.991a1.23 1.23 0 0 0 1.234-1.234V84.43c-.007-.021-.014-.036-.014-.057Z" fill="#fff"/><path d="M95.557 109.305h-3.616v4.723h3.609v-4.723h.007Z" fill="#45CAF2"/><path d="M100.95 106.168h-3.666v7.86h3.68v-7.86h-.014Z" fill="#50E6FF"/><path d="M107.484 101.072h-4.723v12.936h4.723v-12.936Z" fill="#32B0E7"/><path d="M114.886 95.785h-5.428v18.223h5.428V95.785Z" fill="#185A97"/><path d="m94.07 104.865-.656-.31 4.97-9.01 6.626.656 6.873-5.428.536.487-7.162 5.745-6.471-.613-4.716 8.473Z" fill="#16B2E6"/><path d="M93.005 106.423a1.629 1.629 0 1 0 .843-3.142 1.629 1.629 0 0 0-.843 3.142ZM98.264 97.745a1.63 1.63 0 0 0 1.995-1.15 1.63 1.63 0 0 0-1.15-1.994 1.63 1.63 0 0 0-1.994 1.149 1.63 1.63 0 0 0 1.149 1.995ZM104.559 98.126a1.63 1.63 0 0 0 1.995-1.15 1.63 1.63 0 0 0-1.149-1.994 1.63 1.63 0 0 0-1.995 1.149 1.633 1.633 0 0 0 1.149 1.995ZM111.199 92.521a1.634 1.634 0 0 0 2.432-1.403 1.63 1.63 0 0 0-.824-1.438 1.634 1.634 0 0 0-2.432 1.403c-.014.585.31 1.156.824 1.438Z" fill="#059"/><defs><linearGradient id="a" x1="90.391" y1="10.098" x2="90.391" y2="181.497" gradientUnits="userSpaceOnUse"><stop stop-color="#00ABDE"/><stop offset="1" stop-color="#007ED8"/></linearGradient><linearGradient id="b" x1="36.511" y1="4.889" x2="203.188" y2="287.22" gradientUnits="userSpaceOnUse"><stop stop-color="#007ED8"/><stop offset=".707" stop-color="#002D4C"/></linearGradient><linearGradient id="c" x1="54.863" y1="108.425" x2="55.108" y2="133.911" gradientUnits="userSpaceOnUse"><stop offset=".008" stop-color="#E0A310"/><stop offset="1" stop-color="#CA810E"/></linearGradient><linearGradient id="d" x1="48.199" y1="114.348" x2="48.934" y2="141.305" gradientUnits="userSpaceOnUse"><stop offset=".008" stop-color="#F2CC40"/><stop offset="1" stop-color="#E7B116"/></linearGradient><linearGradient id="e" x1="42.047" y1="122.164" x2="42.782" y2="139.564" gradientUnits="userSpaceOnUse"><stop stop-color="#F8E17B"/><stop offset=".53" stop-color="#F6D856"/><stop offset="1" stop-color="#F6D856"/></linearGradient></defs></svg>
